public/static/icons/editor/link.svg

<svg height="24" viewBox="0 0 24 24" width="24" xmlns="http://www.w3.org/2000/svg"><path d="m8.3267219 10.9587669.24103809.0061668c.42823716.0217918.85403592.1011594 1.26479609.2384288l-1.88184561 1.8818456c-.53807487.0791132-1.05709945.3172556-1.47047926.7306354l-2.61964397 2.619644c-1.02113722 1.0211372-1.02113722 2.6826784 0 3.7043395 1.02113722 1.0216612 2.68320232 1.0216612 3.70433953 0l2.61964393-2.6196439c.4133799-.4133799.6510227-.9324044.729612-1.4704793l1.8828691-1.8828691c.5490774 1.6430407.1748856 3.5284304-1.1307449 4.834061l-2.61964401 2.619644c-.91949503.919495-2.12677471 1.379407-3.33390664 1.379407-1.20713194 0-2.41441162-.4594125-3.33390665-1.3783836-1.83846613-1.8384661-1.83846613-4.8303691 0-6.6688352l2.61964396-2.619644c.97961587-.9792229 2.28455038-1.433527 3.56926491-1.3681502zm6.7962889-3.15991963c.4320144-.0127403.8275364.24104685.9959841.63907129.1684477.39802596.075263.85863705-.2346516 1.15988696l-6.28714548 6.28714548c-.26282035.2737437-.65309551.384014-1.02030868.2882858-.36721468-.0957297-.65398497-.3825-.74971316-.7497132s.01454207-.7574883.28828573-1.0203087l6.28714549-6.28714549c.1897902-.19533558.4481708-.30911038.7204021-.31722214zm3.1640365-6.79879396c1.2075249 0 2.4144116.46043593 3.3339066 1.37940704 1.8384662 1.83846613 1.8389901 4.82934563 0 6.66781176l-2.6196439 2.61964399c-.9194951.919495-2.1272728 1.379407-3.3349287 1.379407-.507687 0-1.0139499-.0862441-1.5001558-.2486621l1.8828691-1.8828691c.5385988-.0791132 1.0570994-.3162321 1.4704792-.7296119l2.619644-2.619644c1.0211372-1.02113722 1.0211372-2.68267839 0-3.70433954-.5103066-.51083057-1.1815417-.76644994-1.8521705-.76644994-.6706289 0-1.3423619.2561433-1.8531925.76644994l-2.619644 2.61964397c-.4133798.41337982-.6510226.93240439-.7296119 1.47047926l-1.8818457 1.88184561c-.5490773-1.64304069-.1759091-3.52843044 1.1297215-4.83406099l2.619644-2.61964396c.919495-.91923307 2.1274037-1.37940704 3.3349286-1.37940704z" fill-rule="evenodd"/></svg>

<svg xmlns="http://www.w3.org/2000/svg" width="24" height="24" viewBox="0 0 24 24">
  <path fill-rule="evenodd" d="M8.3267219,10.9587669 L8.56775999,10.9649337 C8.99599715,10.9867255 9.42179591,11.0660931 9.83255608,11.2033625 L9.83255608,11.2033625 L7.95071047,13.0852081 C7.4126356,13.1643213 6.89361102,13.4024637 6.48023121,13.8158435 L6.48023121,13.8158435 L3.86058724,16.4354875 C2.83945002,17.4566247 2.83945002,19.1181659 3.86058724,20.139827 C4.88172446,21.1614882 6.54378956,21.1614882 7.56492677,20.139827 L7.56492677,20.139827 L10.1845707,17.5201831 C10.5979506,17.1068032 10.8355934,16.5877787 10.9141827,16.0497038 L10.9141827,16.0497038 L12.7970518,14.1668347 C13.3461292,15.8098754 12.9719374,17.6952651 11.6663069,19.0008957 L11.6663069,19.0008957 L9.04666289,21.6205397 C8.12716786,22.5400347 6.91988818,22.9999467 5.71275625,22.9999467 C4.50562431,22.9999467 3.29834463,22.5405342 2.3788496,21.6215631 C0.540383466,19.783097 0.540383466,16.791194 2.3788496,14.9527279 L2.3788496,14.9527279 L4.99849356,12.3330839 C5.97810943,11.353861 7.28304394,10.8995569 8.56775847,10.9649337 Z M15.1230108,7.79884727 C15.5550252,7.78610697 15.9505472,8.03989412 16.1189949,8.43791856 C16.2874426,8.83594452 16.1942579,9.29655561 15.8843433,9.59780552 L15.8843433,9.59780552 L9.59719782,15.884951 C9.33437747,16.1586947 8.94410231,16.268965 8.57688914,16.1732368 C8.20967446,16.0775071 7.92290417,15.7907368 7.82717598,15.4235236 C7.73144779,15.0563104 7.84171805,14.6660353 8.11546171,14.4032149 L8.11546171,14.4032149 L14.4026072,8.11606941 C14.5923974,7.92073383 14.850778,7.80695903 15.1230093,7.79884727 Z M18.2870473,1.00005331 C19.4945722,1.00005331 20.7014589,1.46048924 21.6209539,2.37946035 C23.4594201,4.21792648 23.459944,7.20880598 21.6209539,9.04727211 L21.6209539,9.04727211 L19.00131,11.6669161 C18.0818149,12.5864111 16.8740372,13.0463231 15.6663813,13.0463231 C15.1586943,13.0463231 14.6524314,12.960079 14.1662255,12.797661 L14.1662255,12.797661 L16.0490946,10.9147919 C16.5876934,10.8356787 17.106194,10.5985598 17.5195738,10.18518 L17.5195738,10.18518 L20.1392178,7.565536 C21.160355,6.54439878 21.160355,4.88285761 20.1392178,3.86119646 C19.6289112,3.35036589 18.9576761,3.09474652 18.2870473,3.09474652 C17.6164184,3.09474652 16.9446854,3.35088982 16.4338548,3.86119646 L16.4338548,3.86119646 L13.8142108,6.48084043 C13.400831,6.89422025 13.1631882,7.41324482 13.0845989,7.95131969 L13.0845989,7.95131969 L11.2027532,9.8331653 C10.6536759,8.19012461 11.0268441,6.30473486 12.3324747,4.99910431 L12.3324747,4.99910431 L14.9521187,2.37946035 C15.8716137,1.46022728 17.0795224,1.00005331 18.2870473,1.00005331 Z"/>
</svg>
